lib/brands/icons/signal.svg

<svg xmlns="http://www.w3.org/2000/svg" fill="none" aria-hidden="true" viewBox="0 0 48 48"><g id="signal-Icon"><path id="Vector" fill="#3A76F0" d="M19.68 6.52589L20.085 8.16263C18.4918 8.55442 16.9671 9.18494 15.5625 10.0328L14.6962 8.58729C16.2441 7.65286 17.9243 6.95787 19.68 6.52589ZM28.32 6.52589L27.915 8.16263C29.5082 8.55442 31.0329 9.18494 32.4375 10.0328L33.3094 8.58729C31.7598 7.65234 30.0776 6.95733 28.32 6.52589ZM8.58749 14.6956C7.65299 16.2433 6.95794 17.9234 6.52593 19.6789L8.1628 20.0839C8.55462 18.4908 9.18519 16.9662 10.0331 15.5617L8.58749 14.6956ZM7.68749 23.9986C7.68695 23.1805 7.74806 22.3636 7.8703 21.5547L6.20249 21.3016C5.9325 23.0895 5.9325 24.9077 6.20249 26.6956L7.8703 26.4425C7.74806 25.6336 7.68695 24.8167 7.68749 23.9986ZM33.3038 39.4099L32.4375 37.9644C31.0347 38.8117 29.5119 39.4422 27.9206 39.8346L28.3256 41.4713C30.0794 41.0388 31.7577 40.3438 33.3038 39.4099ZM40.3125 23.9986C40.3131 24.8167 40.2519 25.6336 40.1297 26.4425L41.7975 26.6956C42.0675 24.9077 42.0675 23.0895 41.7975 21.3016L40.1297 21.5547C40.2519 22.3636 40.3131 23.1805 40.3125 23.9986ZM41.4741 28.3183L39.8372 27.9133C39.4454 29.5064 38.8148 31.031 37.9669 32.4354L39.4125 33.3072C40.3475 31.7578 41.0426 30.0758 41.4741 28.3183ZM26.4441 40.1298C24.8238 40.3736 23.1762 40.3736 21.5559 40.1298L21.3028 41.7975C23.0908 42.0675 24.9092 42.0675 26.6972 41.7975L26.4441 40.1298ZM37.1316 33.6757C36.1586 34.9932 34.9935 36.1574 33.675 37.1291L34.6763 38.4875C36.1307 37.4182 37.4163 36.1365 38.49 34.6853L37.1316 33.6757ZM33.675 10.868C34.9937 11.8407 36.1589 13.0058 37.1316 14.3243L38.49 13.3119C37.4197 11.8616 36.138 10.5799 34.6875 9.50972L33.675 10.868ZM10.8684 14.3243C11.8411 13.0058 13.0063 11.8407 14.325 10.868L13.3125 9.50972C11.862 10.5799 10.5803 11.8616 9.50999 13.3119L10.8684 14.3243ZM39.4125 14.6956L37.9669 15.5617C38.8143 16.9645 39.4448 18.4872 39.8372 20.0783L41.4741 19.6733C41.0415 17.9197 40.3465 16.2415 39.4125 14.6956ZM21.5559 7.87016C23.1762 7.62641 24.8238 7.62641 26.4441 7.87016L26.6972 6.20247C24.9092 5.93251 23.0908 5.93251 21.3028 6.20247L21.5559 7.87016ZM11.7347 38.9346L8.24999 39.7474L9.0628 36.263L7.4203 35.8777L6.60749 39.3621C6.47439 39.9304 6.64451 40.5272 7.0573 40.94C7.47009 41.3527 8.06691 41.5228 8.6353 41.3897L12.1172 40.5911L11.7347 38.9346ZM7.77187 34.3731L9.41437 34.7556L9.97687 32.3398C9.15698 30.9619 8.54566 29.4702 8.1628 27.9133L6.52593 28.3183C6.89288 29.8095 7.4506 31.2472 8.1853 32.5957L7.77187 34.3731ZM15.6469 38.0291L13.2309 38.5915L13.6134 40.2339L15.3909 39.8205C16.7396 40.5551 18.1774 41.1128 19.6687 41.4797L20.0737 39.843C18.5199 39.4556 17.032 38.8405 15.6581 38.0178L15.6469 38.0291ZM24 9.37472C18.6783 9.37748 13.778 12.2706 11.2052 16.9287C8.63245 21.5868 8.79321 27.2748 11.625 31.7802L10.2187 37.7788L16.2178 36.3726C21.4797 39.6865 28.262 39.3108 33.1256 35.436C37.9892 31.5612 39.8704 25.0348 37.8154 19.166C35.7604 13.2972 30.2186 9.36961 24 9.37472Z"/></g></svg>

<svg xmlns="http://www.w3.org/2000/svg" fill="none" aria-hidden="true" viewBox="0 0 48 48"><path fill="#3A76F0" d="m19.68 6.526.405 1.637a16.269 16.269 0 0 0-4.523 1.87l-.866-1.446a17.934 17.934 0 0 1 4.984-2.061Zm8.64 0-.405 1.637a16.269 16.269 0 0 1 4.523 1.87l.871-1.446a17.934 17.934 0 0 0-4.989-2.061Zm-19.733 8.17a17.93 17.93 0 0 0-2.061 4.983l1.637.405a16.267 16.267 0 0 1 1.87-4.522l-1.446-.866Zm-.9 9.303c0-.819.061-1.635.183-2.444l-1.668-.253a18.062 18.062 0 0 0 0 5.394l1.668-.254A16.283 16.283 0 0 1 7.687 24Zm25.617 15.41-.867-1.445a16.271 16.271 0 0 1-4.516 1.87l.405 1.637a17.933 17.933 0 0 0 4.978-2.061ZM40.312 24c.001.818-.06 1.635-.182 2.444l1.667.253c.27-1.788.27-3.607 0-5.394l-1.667.253c.122.809.183 1.625.182 2.444Zm1.162 4.32-1.637-.406a16.265 16.265 0 0 1-1.87 4.522l1.446.872a17.93 17.93 0 0 0 2.061-4.989Zm-15.03 11.81c-1.62.245-3.268.245-4.888 0l-.253 1.669c1.788.27 3.606.27 5.394 0l-.253-1.668Zm10.688-6.453a16.372 16.372 0 0 1-3.457 3.453l1.001 1.358a18.028 18.028 0 0 0 3.814-3.802l-1.358-1.01Zm-3.457-22.808a16.374 16.374 0 0 1 3.457 3.456l1.358-1.012a18.029 18.029 0 0 0-3.803-3.802l-1.012 1.358Zm-22.807 3.456a16.374 16.374 0 0 1 3.457-3.456L13.313 9.51a18.029 18.029 0 0 0-3.803 3.802l1.358 1.012Zm28.544.372-1.445.866a16.27 16.27 0 0 1 1.87 4.516l1.637-.405a17.93 17.93 0 0 0-2.061-4.977ZM21.556 7.87a16.43 16.43 0 0 1 4.888 0l.253-1.668a18.067 18.067 0 0 0-5.394 0l.253 1.668Zm-9.821 31.065-3.485.812.813-3.484-1.643-.385-.813 3.484a1.687 1.687 0 0 0 2.028 2.028l3.482-.799-.382-1.656Zm-3.963-4.562 1.642.383.563-2.416a16.241 16.241 0 0 1-1.814-4.427l-1.637.405a17.861 17.861 0 0 0 1.66 4.278l-.414 1.777Zm7.875 3.656-2.416.563.382 1.642 1.778-.413a17.868 17.868 0 0 0 4.278 1.659l.405-1.637a16.244 16.244 0 0 1-4.416-1.825l-.011.011ZM24 9.375A14.625 14.625 0 0 0 11.625 31.78l-1.406 5.999 5.999-1.406a14.626 14.626 0 0 0 21.597-17.207A14.625 14.625 0 0 0 24 9.375Z"/></svg>
